X:1
T:Title
%%score { ( 1 4 ) | ( 2 3 ) }
L:1/8
M:6/8
K:G
V:1 treble nm="Grand Piano"
V:4 treble 
V:2 bass 
V:3 bass 
V:1
 z3 z2[Q:1/4=100] D | [DB]_B=B c2 B | [DB]2 [CA] [B,G]2 [B,G] | [EG]FG [FA]GE | %4
 [B,D]3- [B,D]2 [B,D] | [DB]_B=B c2 B | [DB]2 [CA] [B,G]2 [GB] | [FA]2 [FA] [FA]B^c | d3- [Bd]^cB | %9
 [FA]2 [FA] [FA]GE | D3- D2 D | [Ac]2 B BAG | [CG]2 A B2 B | [GB]2 [FA] [B,EG]2 [^DF] | %14
 [G,E]3- [G,E]2 [EB] | [^CA]2 A AB^c | [Fd]2 [Fd] [Bd]^cB | [FA]2 [FA] [FA]G[K:bass][G,^CE] | %18
[M:5/8] [F,D]-[F,D]- [F,D]3 |[M:1/8] D |[M:3/4][K:treble] [DB][^C_B] [D=B] [Ec]2 [DB] | %21
 [DB]2 [CA] [B,G]2 [CG] | [EG][^DF] [EG][FA] [EG][CE] | [B,D]4- [B,D][B,D] | %24
 [DB][^C_B] [D=B] [Ec]2 [DB] | B2 A G2 E | D2 B B2 A |[M:5/8] [G,B,G]-[G,B,G]- [G,B,G]3 | %28
[M:1/8] D |[M:3/4] d2 D c2 D | B2 D [FA]2 D | z2 z A z2 |[M:5/8] [G,B,DG]-[G,B,DG]- [G,B,DG]3 |] %33
V:2
 z6 | z ^CD E2 D | [D,,D,]3 [G,,G,]3 | z ^DE z EC | [G,,,G,,]6 | z ^CD E2 D | [D,,D,]3 [G,,,G,,]3 | %7
 [A,,,A,,]3 z[K:treble] GE | [D,,D,]3 z[K:treble] AG | [A,,,A,,]3 z E^C | [D,F,]6 | %11
 z2[K:treble] G GD[K:bass]B, | z2[K:treble] D G2 G | G,2 A, z2 A, | E,3- E,2 [E,G,] | z2 ^C CDE | %16
 [D,,D,]3 z[K:treble] AG | [A,,A,]3 z EA,, |[M:5/8] D,-D,- D,3 |[M:1/8] D, | %20
[M:3/4] [G,,G,]2 [G,,G,] [G,,G,]2 [G,,G,] | [D,F,]2 [D,F,] [G,,G,]2 [G,,G,] | %22
 [C,G,]2 [C,G,] [C,G,]2 [C,G,] | [G,,G,]4- [G,,G,][G,,G,] | [G,,G,]2 [G,,G,] [G,,G,]2 [G,,G,] | %25
 [D,G,D]2 [D,F,C] [E,G,B,]2 [C,G,C] | [D,G,B,]2 [D,G,D] [D,F,D]2 [D,F,C] |[M:5/8] G,,-G,,- G,,3 | %28
[M:1/8] D, |[M:3/4][K:treble] G2 z .[A,F]3 | G2 z[K:bass] D,3 | [E,B,E]4 GD, | %32
[M:5/8] A,,-A,,- A,,3 |] %33
V:3
 x6 | [G,,G,]6 | x6 | [C,,C,]3 [C,,C,]3 | x6 | [G,,G,]6 | x6 | z3 [A,,,A,,]3[K:treble] | %8
 z3 [G,,,G,,]3[K:treble] | z3 [A,,E,G,]3 | x6 | [D,,D,]6[K:treble][K:bass] | [G,,G,]6[K:treble] | %13
 E,3 B,,3 | x6 | [A,,A,]6 | z3 [G,,G,]3[K:treble] | z3 .[A,,A,]3 |[M:5/8] x5 |[M:1/8] x | %20
[M:3/4] x6 | x6 | x6 | x6 | x6 | x6 | x6 |[M:5/8] x5 |[M:1/8] x |[M:3/4][K:treble] B,4 z2 | %30
 G,4[K:bass] z2 | z2 z .A,,3 |[M:5/8] x5 |] %33
V:4
 x6 | x6 | x6 | x6 | x6 | x6 | x6 | x6 | F3 z3 | x6 | x6 | x6 | x6 | x6 | x6 | x6 | x6 | %17
 x5[K:bass] x |[M:5/8] x5 |[M:1/8] x |[M:3/4][K:treble] x6 | x6 | x6 | x6 | x6 | x6 | x6 | %27
[M:5/8] x5 |[M:1/8] x |[M:3/4] x6 | x6 | GF G [A,CE]2 [A,CDF] |[M:5/8] x5 |] %33

